X: 40787
T: Towey The Thatcher
R: jig
M: 6/8
K: Aminor
|:A2A BAG|A2G E2D|EGA A2D|EGG G3|
A2A BAG|A2G E2D|EGG G2D|EGG BAG:|
|:d2d edB|ABd B3|BAG G3|AGE DEG|
d2d edB|ABd B2B|dgg g2B|dgg g3:|

